icons/global/server-settings/moderation.svg

<svg width="24" height="24" viewBox="0 0 24 24" fill="none" xmlns="http://www.w3.org/2000/svg">
<path d="M6.2 2.44L18.1 14.34L20.22 12.22L21.63 13.63L19.16 16.1L22.34 19.28C22.73 19.67 22.73 20.3 22.34 20.69L21.63 21.4C21.5375 21.4927 21.4276 21.5663 21.3066 21.6164C21.1856 21.6666 21.056 21.6924 20.925 21.6924C20.794 21.6924 20.6643 21.6666 20.5434 21.6164C20.4224 21.5663 20.3125 21.4927 20.22 21.4L17 18.23L14.56 20.7L13.15 19.29L15.27 17.17L3.37 5.27V2.44H6.2ZM15.89 10L20.63 5.26V2.44H17.8L13.06 7.18L15.89 10ZM10.94 15L8.11 12.13L5.9 14.34L3.78 12.22L2.37 13.63L4.84 16.1L1.66 19.29C1.56729 19.3825 1.49375 19.4924 1.44357 19.6134C1.39338 19.7344 1.36755 19.864 1.36755 19.995C1.36755 20.126 1.39338 20.2557 1.44357 20.3766C1.49375 20.4976 1.56729 20.6075 1.66 20.7L2.37 21.41C2.76 21.8 3.39 21.8 3.78 21.41L7 18.23L9.44 20.7L10.85 19.29L8.73 17.17L10.94 15V15Z" fill="black"/>
</svg>

<svg xmlns="http://www.w3.org/2000/svg" viewBox="0 0 24 24">
  <path fill="B9BBBE" d="m6.2 2.44 11.9 11.9 2.12-2.12 1.41 1.41-2.47 2.47 3.18 3.18c.39.39.39 1.02 0 1.41l-.71.71a.996.996 0 0 1-1.41 0L17 18.23l-2.44 2.47-1.41-1.41 2.12-2.12-11.9-11.9V2.44H6.2ZM15.89 10l4.74-4.74V2.44H17.8l-4.74 4.74L15.89 10Zm-4.95 5-2.83-2.87-2.21 2.21-2.12-2.12-1.41 1.41 2.47 2.47-3.18 3.19a.996.996 0 0 0 0 1.41l.71.71c.39.39 1.02.39 1.41 0L7 18.23l2.44 2.47 1.41-1.41-2.12-2.12L10.94 15Z"/>
</svg>
